svg/clockface/clockfacefatsolid/clock_11_05.svg

<?xml version="1.0" encoding="UTF-8" standalone="no"?>
<svg
   height="1000"
   width="1000"
   version="1.1"
   id="h00m00"
   viewBox="0 0 1000 1000"
   sodipodi:docname="clock_11_05.svg"
   xmlns:inkscape="http://www.inkscape.org/namespaces/inkscape"
   xmlns:sodipodi="http://sodipodi.sourceforge.net/DTD/sodipodi-0.dtd"
   xmlns="http://www.w3.org/2000/svg"
   xmlns:svg="http://www.w3.org/2000/svg">
  <defs
     id="defs10" />
  <sodipodi:namedview
     id="namedview8"
     pagecolor="#ffffff"
     bordercolor="#000000"
     borderopacity="0.25"
     inkscape:showpageshadow="2"
     inkscape:pageopacity="0.0"
     inkscape:pagecheckerboard="0"
     inkscape:deskcolor="#d1d1d1" />
  <path
     id="path14"
     style="color:#000000;fill:#000000;stroke-width:60;-inkscape-stroke:none"
     d="M 500 130 C 296.01059 130 130 296.01059 130 500 C 130 703.98941 296.01059 870 500 870 C 703.98941 870 870 703.98941 870 500 C 870 296.01059 703.98941 130 500 130 z M 590.35938 263.49414 L 659.64062 303.49414 L 639.64062 338.13477 L 534.64062 520 A 40.004 40.004 0 0 1 465.35938 520 L 395.35938 398.75586 L 375.35938 364.11523 L 444.64062 324.11523 L 464.64062 358.75586 L 500 420 L 570.35938 298.13477 L 590.35938 263.49414 z " />
</svg>

<svg xmlns="http://www.w3.org/2000/svg" width="1000" height="1000"><path d="M500 130c-203.99 0-370 166.01-370 370s166.01 370 370 370 370-166.01 370-370-166.01-370-370-370zm90.36 133.494 69.28 40-20 34.64L534.64 520a40.004 40.004 0 0 1-69.28 0l-70-121.244-20-34.64 69.28-40 20 34.64L500 420l70.36-121.865 20-34.64z" style="-inkscape-stroke:none" stroke-width="60"/></svg>
